src/assets/icons/traffic-sign-danger.svg

<svg id="Nederlands_verkeersbord_J37" width="350" height="300" viewBox="0 0 350 300"
xmlns="http://www.w3.org/2000/svg" version="1.1">

<path id="rode_driehoek" fill="#c1121c"    
     d="M 339,300 C 339,300 322.1851,300 339,300 C 353.90353,300 346.22341,283.83031 346.22341,283.83031 L 185.09642,8.094485 C 185.09642,8.094485 188.57351,14.216156 185.09642,8.094485 C 178.82808,-2.86259 170.64998,-2.369378 164.87962,7.601273 L 3.7937358,283.83031 C 3.7937358,283.83031 -3.9265023,300 11,300 C 27.83202,300 11,300 11,300 L 339,300" />

<path id="witte_driehoek" fill="#f7fbf5"    
     d="M 174.50959,73.711342 L 66.775618,259.57577 L 283.69646,259.57577 L 174.50959,73.711342" />

<path id="zwart_symbool" style="fill:#2a2d2f;stroke:#2a2d2f;stroke-width:1.22561038"
       d="M 175.00662,215.79575 C 181.31213,215.79575 186.472,210.54446 186.472,204.12301 L 186.472,130.86618 C 186.472,124.44472 181.31213,119.19344 175.00662,119.19344 C 168.66293,119.19344 163.54122,124.44472 163.54122,130.86618 L 163.54122,204.12301 C 163.54122,210.54446 168.66293,215.79575 175.00662,215.79575 z M 175.00662,247.86435 C 181.35028,247.86435 186.54832,242.7678 186.54832,236.4914 C 186.54832,230.18601 181.35028,225.08944 175.00662,225.08944 C 168.62478,225.08944 163.46491,230.18601 163.46491,236.4914 C 163.46491,242.7678 168.62478,247.86435 175.00662,247.86435" />
</svg>

<svg xmlns="http://www.w3.org/2000/svg" viewBox="0 0 350 300"><path fill="#c1121c" d="M339 300s-16.815 0 0 0c14.904 0 7.223-16.17 7.223-16.17L185.096 8.094s3.478 6.122 0 0c-6.268-10.957-14.446-10.463-20.216-.493L3.794 283.831S-3.926 300 11 300c16.832 0 0 0 0 0z"/><path fill="#f7fbf5" d="M174.51 73.711 66.776 259.576h216.92z"/><path d="M175.007 215.796c6.305 0 11.465-5.252 11.465-11.673v-73.257c0-6.421-5.16-11.673-11.465-11.673-6.344 0-11.466 5.252-11.466 11.673v73.257c0 6.421 5.122 11.673 11.466 11.673zm0 32.068c6.343 0 11.541-5.096 11.541-11.373 0-6.305-5.198-11.402-11.541-11.402-6.382 0-11.542 5.097-11.542 11.402 0 6.277 5.16 11.373 11.542 11.373" style="fill:#2a2d2f;stroke:#2a2d2f;stroke-width:1.22561038"/></svg>
